report_00007_2020-12-11T15:55:29.892Z/mainthread-work-breakdown/comparison/sorted/11_vs_12.svg

<svg width="640" height="500" xmlns="http://www.w3.org/2000/svg" xmlns:xlink="http://www.w3.org/1999/xlink"><path fill="#fff" d="M0 0h640v500H0z"/><defs><path id="d" stroke-width=".222" stroke="currentColor" d="M-1-1h2v2h-2z"/><path id="b" stroke-width=".222" stroke="currentColor" d="M0-1.33l-1.33 2h2.66z"/><path id="f" stroke-width=".222" stroke="currentColor" d="M0 1.33L1.265.411.782-1.067l-1.564-.009-.483 1.487z"/><use xlink:href="#b" id="c" stroke="currentColor" transform="rotate(180)"/><use xlink:href="#d" id="e" stroke="currentColor" transform="rotate(45)"/><circle id="a" stroke-width=".222" stroke="currentColor" cx="0" cy="0" r="1"/></defs><g fill="none" color="#000" stroke="currentColor"><path stroke="#000" d="M53.9 383.3h9m552.1 0h-9"/><text transform="translate(45.6 387.2)" stroke="none" fill="#000" font-family="Arial" font-size="12" text-anchor="end"><tspan>350</tspan></text></g><g fill="none" color="#000" stroke="currentColor"><path stroke="#000" d="M53.9 313.1h9m552.1 0h-9"/><text transform="translate(45.6 317)" stroke="none" fill="#000" font-family="Arial" font-size="12" text-anchor="end"><tspan>400</tspan></text></g><g fill="none" color="#000" stroke="currentColor"><path stroke="#000" d="M53.9 242.8h9m552.1 0h-9"/><text transform="translate(45.6 246.7)" stroke="none" fill="#000" font-family="Arial" font-size="12" text-anchor="end"><tspan>450</tspan></text></g><g fill="none" color="#000" stroke="currentColor"><path stroke="#000" d="M53.9 172.6h9m552.1 0h-9"/><text transform="translate(45.6 176.5)" stroke="none" fill="#000" font-family="Arial" font-size="12" text-anchor="end"><tspan>500</tspan></text></g><g fill="none" color="#000" stroke="currentColor"><path stroke="#000" d="M53.9 102.3h9m552.1 0h-9"/><text transform="translate(45.6 106.2)" stroke="none" fill="#000" font-family="Arial" font-size="12" text-anchor="end"><tspan>550</tspan></text></g><g fill="none" color="#000" stroke="currentColor"><path stroke="#000" d="M53.9 32.1h9m552.1 0h-9"/><text transform="translate(45.6 36)" stroke="none" fill="#000" font-family="Arial" font-size="12" text-anchor="end"><tspan>600</tspan></text></g><g fill="none" color="#000" stroke="currentColor"><path stroke="#000" d="M53.9 392v-9m0-364.9v9"/><text transform="translate(53.9 413.9)" stroke="none" fill="#000" font-family="Arial" font-size="12" text-anchor="middle"><tspan>0</tspan></text></g><g fill="none" color="#000" stroke="currentColor"><path stroke="#000" d="M110.6 392v-9m0-364.9v9"/><text transform="translate(110.6 413.9)" stroke="none" fill="#000" font-family="Arial" font-size="12" text-anchor="middle"><tspan>10</tspan></text></g><g fill="none" color="#000" stroke="currentColor"><path stroke="#000" d="M167.3 392v-9m0-364.9v9"/><text transform="translate(167.3 413.9)" stroke="none" fill="#000" font-family="Arial" font-size="12" text-anchor="middle"><tspan>20</tspan></text></g><g fill="none" color="#000" stroke="currentColor"><path stroke="#000" d="M223.9 392v-9m0-364.9v9"/><text transform="translate(223.9 413.9)" stroke="none" fill="#000" font-family="Arial" font-size="12" text-anchor="middle"><tspan>30</tspan></text></g><g fill="none" color="#000" stroke="currentColor"><path stroke="#000" d="M280.6 392v-9m0-364.9v9"/><text transform="translate(280.6 413.9)" stroke="none" fill="#000" font-family="Arial" font-size="12" text-anchor="middle"><tspan>40</tspan></text></g><g fill="none" color="#000" stroke="currentColor"><path stroke="#000" d="M337.3 392v-9m0-364.9v9"/><text transform="translate(337.3 413.9)" stroke="none" fill="#000" font-family="Arial" font-size="12" text-anchor="middle"><tspan>50</tspan></text></g><g fill="none" color="#000" stroke="currentColor"><path stroke="#000" d="M394 392v-9m0-364.9v9"/><text transform="translate(394 413.9)" stroke="none" fill="#000" font-family="Arial" font-size="12" text-anchor="middle"><tspan>60</tspan></text></g><g fill="none" color="#000" stroke="currentColor"><path stroke="#000" d="M450.6 392v-9m0-364.9v9"/><text transform="translate(450.6 413.9)" stroke="none" fill="#000" font-family="Arial" font-size="12" text-anchor="middle"><tspan>70</tspan></text></g><g fill="none" color="#000" stroke="currentColor"><path stroke="#000" d="M507.3 392v-9m0-364.9v9"/><text transform="translate(507.3 413.9)" stroke="none" fill="#000" font-family="Arial" font-size="12" text-anchor="middle"><tspan>80</tspan></text></g><g fill="none" color="#000" stroke="currentColor"><path stroke="#000" d="M564 392v-9m0-364.9v9"/><text transform="translate(564 413.9)" stroke="none" fill="#000" font-family="Arial" font-size="12" text-anchor="middle"><tspan>90</tspan></text></g><path stroke="#000" d="M53.9 18.1V392H615V18.1H53.9z" fill="none" color="#000"/><text transform="translate(508.4 431.9)" stroke="none" fill="#000" font-family="Arial" font-size="12" text-anchor="end" color="#000"><tspan>pages+cached+noexternal+nofonts+nosvg+noimg</tspan></text><path stroke="#9400D3" d="M516.7 428h42.2m-505-243l5.7-14.2 5.6-2 5.7-.5 5.7-4.7 5.6-1.2 5.7-.6 5.7-1.3 5.6-.7 5.7-.9 5.7-.9 5.6-2 5.7-.1 5.7-.6 5.6-1.4 5.7-1.1 5.7-.9 5.7-.8 5.6-.2 5.7-2 5.7-.1 5.6-2.1 5.7-.2 5.7-.3 5.6-.5 5.7-.6 5.7-.6 5.6-.9 5.7-.3 5.7-.3 5.6-.2 5.7-.1 5.7-1.4 5.6-.1 5.7-.5 5.7-.1 5.6-.3 5.7-.4 5.7-.4h5.6l5.7-.4h5.7l5.6-.3 5.7-.2 5.7-.3 5.6-.6 5.7-1 5.7-.3 5.6-.1h5.7l5.7-.1 5.7-.6 5.6-.5 5.7-.3 5.7-.6 5.6-.1 5.7-1h5.7l5.6-.2 5.7-.3 5.7-.4h5.6l5.7-.1 5.7-.5 5.6-.2 5.7-.3h5.7l5.6-.9 5.7-.1 5.7-.2 5.6-.1 5.7-.2 5.7-.4 5.6-1.2 5.7-.2 5.7-.4 5.6-1 5.7-.2 5.7-.1 5.6-.9 5.7-.3 5.7-1.2 5.6-.9 5.7-.5 5.7-.7h5.7l5.6-1.7 5.7-1.7 5.7-2.2 5.6-.1 5.7-3.6 5.7-.6 5.6-.5 5.7-7.8 5.7-4.7 5.6-11.8 5.7-3.2 5.7-2.3 5.6-53.7 5.7-2.4" fill="none" color="#000"/><text transform="translate(508.4 449.9)" stroke="none" fill="#000" font-family="Arial" font-size="12" text-anchor="end" color="#000"><tspan>pages+cached+noexternal+nofonts+nosvg+noimg+nocss</tspan></text><path stroke="#009E73" d="M516.7 446h42.2m-505-61.2l5.7-6.1 5.6-.6 5.7-.9 5.7-.2 5.6-.8 5.7-.2 5.7-.1 5.6-.5 5.7-.1 5.7-.2 5.6-1.1 5.7-1.4 5.7-.3 5.6-.1 5.7-.3 5.7-.2 5.7-.4 5.6-.2 5.7-1 5.7-.2h5.6l5.7-1 5.7-.1 5.6-.4 5.7-.4 5.7-.8h5.6l5.7-.1 5.7-.1 5.6-.3 5.7-.2 5.7-.5h5.6l5.7-.1 5.7-.8 5.6-.4 5.7-.2 5.7-.2 5.6-1.6h5.7l5.7-.4 5.6-.2 5.7-.1h5.7l5.6-.8h5.7l5.7-.1 5.6-.4h5.7l5.7-.4 5.7-.1 5.6-.4 5.7-.1h5.7l5.6-.1 5.7-.4 5.7-.3 5.6-.2 5.7-.2 5.7-.2 5.6-.3 5.7-.1h11.3l5.7-.9 5.7-.4 5.6-.1 5.7-.1 5.7-.5h5.6l5.7-.1 5.7-.1 5.6-.2 5.7-.4h11.3l5.7-.1 5.7-.1 5.6-.6h5.7l5.7-.1 5.6-.2 5.7-1 5.7-.3 5.7-.5 5.6-.3 5.7-.8 5.7-.2 5.6-.6 5.7-1.8 5.7-.2 5.6-.7 5.7-.1 5.7-1.8 5.6-2h5.7l5.7-5.6 5.6-8.9 5.7-94" fill="none" color="#000"/><text transform="translate(508.4 467.9)" stroke="none" fill="#000" font-family="Arial" font-size="12" text-anchor="end" color="#000"><tspan>score p10=2017</tspan></text><path stroke="#56B4E9" d="M516.7 464h42.2" fill="none" color="#000"/><g><text transform="translate(508.4 485.9)" stroke="none" fill="#000" font-family="Arial" font-size="12" text-anchor="end" color="#000"><tspan>score median=4000</tspan></text><path stroke="#E69F00" d="M516.7 482h42.2" fill="none" color="#000"/></g><g fill="none" color="#000" stroke="currentColor"><path stroke="#000" d="M53.9 18.1V392H615V18.1H53.9z"/></g></svg>

<?xml version="1.0" encoding="utf-8"  standalone="no"?>
<svg 
 width="640" height="500"
 viewBox="0 0 640 500"
 xmlns="http://www.w3.org/2000/svg"
 xmlns:xlink="http://www.w3.org/1999/xlink"
>

<title>Gnuplot</title>
<desc>Produced by GNUPLOT 5.4 patchlevel 0 </desc>

<g id="gnuplot_canvas">

<rect x="0" y="0" width="640" height="500" fill="#ffffff"/>
<defs>

	<circle id='gpDot' r='0.5' stroke-width='0.5' stroke='currentColor'/>
	<path id='gpPt0' stroke-width='0.222' stroke='currentColor' d='M-1,0 h2 M0,-1 v2'/>
	<path id='gpPt1' stroke-width='0.222' stroke='currentColor' d='M-1,-1 L1,1 M1,-1 L-1,1'/>
	<path id='gpPt2' stroke-width='0.222' stroke='currentColor' d='M-1,0 L1,0 M0,-1 L0,1 M-1,-1 L1,1 M-1,1 L1,-1'/>
	<rect id='gpPt3' stroke-width='0.222' stroke='currentColor' x='-1' y='-1' width='2' height='2'/>
	<rect id='gpPt4' stroke-width='0.222' stroke='currentColor' fill='currentColor' x='-1' y='-1' width='2' height='2'/>
	<circle id='gpPt5' stroke-width='0.222' stroke='currentColor' cx='0' cy='0' r='1'/>
	<use xlink:href='#gpPt5' id='gpPt6' fill='currentColor' stroke='none'/>
	<path id='gpPt7' stroke-width='0.222' stroke='currentColor' d='M0,-1.33 L-1.33,0.67 L1.33,0.67 z'/>
	<use xlink:href='#gpPt7' id='gpPt8' fill='currentColor' stroke='none'/>
	<use xlink:href='#gpPt7' id='gpPt9' stroke='currentColor' transform='rotate(180)'/>
	<use xlink:href='#gpPt9' id='gpPt10' fill='currentColor' stroke='none'/>
	<use xlink:href='#gpPt3' id='gpPt11' stroke='currentColor' transform='rotate(45)'/>
	<use xlink:href='#gpPt11' id='gpPt12' fill='currentColor' stroke='none'/>
	<path id='gpPt13' stroke-width='0.222' stroke='currentColor' d='M0,1.330 L1.265,0.411 L0.782,-1.067 L-0.782,-1.076 L-1.265,0.411 z'/>
	<use xlink:href='#gpPt13' id='gpPt14' fill='currentColor' stroke='none'/>
	<filter id='textbox' filterUnits='objectBoundingBox' x='0' y='0' height='1' width='1'>
	  <feFlood flood-color='#FFFFFF' flood-opacity='1' result='bgnd'/>
	  <feComposite in='SourceGraphic' in2='bgnd' operator='atop'/>
	</filter>
	<filter id='greybox' filterUnits='objectBoundingBox' x='0' y='0' height='1' width='1'>
	  <feFlood flood-color='lightgrey' flood-opacity='1' result='grey'/>
	  <feComposite in='SourceGraphic' in2='grey' operator='atop'/>
	</filter>
</defs>
<g fill="none" color="#FFFFFF" stroke="black" stroke-width="1.00" stroke-linecap="butt" stroke-linejoin="miter">
</g>
<g fill="none" color="black" stroke="currentColor" stroke-width="1.00" stroke-linecap="butt" stroke-linejoin="miter">
	<path stroke='black'  d='M53.9,383.3 L62.9,383.3 M615.0,383.3 L606.0,383.3  '/>	<g transform="translate(45.6,387.2)" stroke="none" fill="black" font-family="Arial" font-size="12.00"  text-anchor="end">
		<text><tspan font-family="Arial" > 350</tspan></text>
	</g>
</g>
<g fill="none" color="black" stroke="currentColor" stroke-width="1.00" stroke-linecap="butt" stroke-linejoin="miter">
	<path stroke='black'  d='M53.9,313.1 L62.9,313.1 M615.0,313.1 L606.0,313.1  '/>	<g transform="translate(45.6,317.0)" stroke="none" fill="black" font-family="Arial" font-size="12.00"  text-anchor="end">
		<text><tspan font-family="Arial" > 400</tspan></text>
	</g>
</g>
<g fill="none" color="black" stroke="currentColor" stroke-width="1.00" stroke-linecap="butt" stroke-linejoin="miter">
	<path stroke='black'  d='M53.9,242.8 L62.9,242.8 M615.0,242.8 L606.0,242.8  '/>	<g transform="translate(45.6,246.7)" stroke="none" fill="black" font-family="Arial" font-size="12.00"  text-anchor="end">
		<text><tspan font-family="Arial" > 450</tspan></text>
	</g>
</g>
<g fill="none" color="black" stroke="currentColor" stroke-width="1.00" stroke-linecap="butt" stroke-linejoin="miter">
	<path stroke='black'  d='M53.9,172.6 L62.9,172.6 M615.0,172.6 L606.0,172.6  '/>	<g transform="translate(45.6,176.5)" stroke="none" fill="black" font-family="Arial" font-size="12.00"  text-anchor="end">
		<text><tspan font-family="Arial" > 500</tspan></text>
	</g>
</g>
<g fill="none" color="black" stroke="currentColor" stroke-width="1.00" stroke-linecap="butt" stroke-linejoin="miter">
	<path stroke='black'  d='M53.9,102.3 L62.9,102.3 M615.0,102.3 L606.0,102.3  '/>	<g transform="translate(45.6,106.2)" stroke="none" fill="black" font-family="Arial" font-size="12.00"  text-anchor="end">
		<text><tspan font-family="Arial" > 550</tspan></text>
	</g>
</g>
<g fill="none" color="black" stroke="currentColor" stroke-width="1.00" stroke-linecap="butt" stroke-linejoin="miter">
	<path stroke='black'  d='M53.9,32.1 L62.9,32.1 M615.0,32.1 L606.0,32.1  '/>	<g transform="translate(45.6,36.0)" stroke="none" fill="black" font-family="Arial" font-size="12.00"  text-anchor="end">
		<text><tspan font-family="Arial" > 600</tspan></text>
	</g>
</g>
<g fill="none" color="black" stroke="currentColor" stroke-width="1.00" stroke-linecap="butt" stroke-linejoin="miter">
	<path stroke='black'  d='M53.9,392.0 L53.9,383.0 M53.9,18.1 L53.9,27.1  '/>	<g transform="translate(53.9,413.9)" stroke="none" fill="black" font-family="Arial" font-size="12.00"  text-anchor="middle">
		<text><tspan font-family="Arial" > 0</tspan></text>
	</g>
</g>
<g fill="none" color="black" stroke="currentColor" stroke-width="1.00" stroke-linecap="butt" stroke-linejoin="miter">
	<path stroke='black'  d='M110.6,392.0 L110.6,383.0 M110.6,18.1 L110.6,27.1  '/>	<g transform="translate(110.6,413.9)" stroke="none" fill="black" font-family="Arial" font-size="12.00"  text-anchor="middle">
		<text><tspan font-family="Arial" > 10</tspan></text>
	</g>
</g>
<g fill="none" color="black" stroke="currentColor" stroke-width="1.00" stroke-linecap="butt" stroke-linejoin="miter">
	<path stroke='black'  d='M167.3,392.0 L167.3,383.0 M167.3,18.1 L167.3,27.1  '/>	<g transform="translate(167.3,413.9)" stroke="none" fill="black" font-family="Arial" font-size="12.00"  text-anchor="middle">
		<text><tspan font-family="Arial" > 20</tspan></text>
	</g>
</g>
<g fill="none" color="black" stroke="currentColor" stroke-width="1.00" stroke-linecap="butt" stroke-linejoin="miter">
	<path stroke='black'  d='M223.9,392.0 L223.9,383.0 M223.9,18.1 L223.9,27.1  '/>	<g transform="translate(223.9,413.9)" stroke="none" fill="black" font-family="Arial" font-size="12.00"  text-anchor="middle">
		<text><tspan font-family="Arial" > 30</tspan></text>
	</g>
</g>
<g fill="none" color="black" stroke="currentColor" stroke-width="1.00" stroke-linecap="butt" stroke-linejoin="miter">
	<path stroke='black'  d='M280.6,392.0 L280.6,383.0 M280.6,18.1 L280.6,27.1  '/>	<g transform="translate(280.6,413.9)" stroke="none" fill="black" font-family="Arial" font-size="12.00"  text-anchor="middle">
		<text><tspan font-family="Arial" > 40</tspan></text>
	</g>
</g>
<g fill="none" color="black" stroke="currentColor" stroke-width="1.00" stroke-linecap="butt" stroke-linejoin="miter">
	<path stroke='black'  d='M337.3,392.0 L337.3,383.0 M337.3,18.1 L337.3,27.1  '/>	<g transform="translate(337.3,413.9)" stroke="none" fill="black" font-family="Arial" font-size="12.00"  text-anchor="middle">
		<text><tspan font-family="Arial" > 50</tspan></text>
	</g>
</g>
<g fill="none" color="black" stroke="currentColor" stroke-width="1.00" stroke-linecap="butt" stroke-linejoin="miter">
	<path stroke='black'  d='M394.0,392.0 L394.0,383.0 M394.0,18.1 L394.0,27.1  '/>	<g transform="translate(394.0,413.9)" stroke="none" fill="black" font-family="Arial" font-size="12.00"  text-anchor="middle">
		<text><tspan font-family="Arial" > 60</tspan></text>
	</g>
</g>
<g fill="none" color="black" stroke="currentColor" stroke-width="1.00" stroke-linecap="butt" stroke-linejoin="miter">
	<path stroke='black'  d='M450.6,392.0 L450.6,383.0 M450.6,18.1 L450.6,27.1  '/>	<g transform="translate(450.6,413.9)" stroke="none" fill="black" font-family="Arial" font-size="12.00"  text-anchor="middle">
		<text><tspan font-family="Arial" > 70</tspan></text>
	</g>
</g>
<g fill="none" color="black" stroke="currentColor" stroke-width="1.00" stroke-linecap="butt" stroke-linejoin="miter">
	<path stroke='black'  d='M507.3,392.0 L507.3,383.0 M507.3,18.1 L507.3,27.1  '/>	<g transform="translate(507.3,413.9)" stroke="none" fill="black" font-family="Arial" font-size="12.00"  text-anchor="middle">
		<text><tspan font-family="Arial" > 80</tspan></text>
	</g>
</g>
<g fill="none" color="black" stroke="currentColor" stroke-width="1.00" stroke-linecap="butt" stroke-linejoin="miter">
	<path stroke='black'  d='M564.0,392.0 L564.0,383.0 M564.0,18.1 L564.0,27.1  '/>	<g transform="translate(564.0,413.9)" stroke="none" fill="black" font-family="Arial" font-size="12.00"  text-anchor="middle">
		<text><tspan font-family="Arial" > 90</tspan></text>
	</g>
</g>
<g fill="none" color="black" stroke="currentColor" stroke-width="1.00" stroke-linecap="butt" stroke-linejoin="miter">
</g>
<g fill="none" color="black" stroke="currentColor" stroke-width="1.00" stroke-linecap="butt" stroke-linejoin="miter">
	<path stroke='black'  d='M53.9,18.1 L53.9,392.0 L615.0,392.0 L615.0,18.1 L53.9,18.1 Z  '/></g>
<g fill="none" color="black" stroke="currentColor" stroke-width="1.00" stroke-linecap="butt" stroke-linejoin="miter">
</g>
	<g id="gnuplot_plot_1" ><title>pages+cached+noexternal+nofonts+nosvg+noimg</title>
<g fill="none" color="black" stroke="currentColor" stroke-width="1.00" stroke-linecap="butt" stroke-linejoin="miter">
	<g transform="translate(508.4,431.9)" stroke="none" fill="black" font-family="Arial" font-size="12.00"  text-anchor="end">
		<text><tspan font-family="Arial" >pages+cached+noexternal+nofonts+nosvg+noimg</tspan></text>
	</g>
</g>
<g fill="none" color="black" stroke="currentColor" stroke-width="1.00" stroke-linecap="butt" stroke-linejoin="miter">
	<path stroke='rgb(148,   0, 211)'  d='M516.7,428.0 L558.9,428.0 M53.9,185.0 L59.6,170.8 L65.2,168.8 L70.9,168.3 L76.6,163.6 L82.2,162.4
		L87.9,161.8 L93.6,160.5 L99.2,159.8 L104.9,158.9 L110.6,158.0 L116.2,156.0 L121.9,155.9 L127.6,155.3
		L133.2,153.9 L138.9,152.8 L144.6,151.9 L150.3,151.1 L155.9,150.9 L161.6,148.9 L167.3,148.8 L172.9,146.7
		L178.6,146.5 L184.3,146.2 L189.9,145.7 L195.6,145.1 L201.3,144.5 L206.9,143.6 L212.6,143.3 L218.3,143.0
		L223.9,142.8 L229.6,142.7 L235.3,141.3 L240.9,141.2 L246.6,140.7 L252.3,140.6 L257.9,140.3 L263.6,139.9
		L269.3,139.5 L274.9,139.5 L280.6,139.1 L286.3,139.1 L291.9,138.8 L297.6,138.6 L303.3,138.3 L308.9,137.7
		L314.6,136.7 L320.3,136.4 L325.9,136.3 L331.6,136.3 L337.3,136.2 L343.0,135.6 L348.6,135.1 L354.3,134.8
		L360.0,134.2 L365.6,134.1 L371.3,133.1 L377.0,133.1 L382.6,132.9 L388.3,132.6 L394.0,132.2 L399.6,132.2
		L405.3,132.1 L411.0,131.6 L416.6,131.4 L422.3,131.1 L428.0,131.1 L433.6,130.2 L439.3,130.1 L445.0,129.9
		L450.6,129.8 L456.3,129.6 L462.0,129.2 L467.6,128.0 L473.3,127.8 L479.0,127.4 L484.6,126.4 L490.3,126.2
		L496.0,126.1 L501.6,125.2 L507.3,124.9 L513.0,123.7 L518.6,122.8 L524.3,122.3 L530.0,121.6 L535.7,121.6
		L541.3,119.9 L547.0,118.2 L552.7,116.0 L558.3,115.9 L564.0,112.3 L569.7,111.7 L575.3,111.2 L581.0,103.4
		L586.7,98.7 L592.3,86.9 L598.0,83.7 L603.7,81.4 L609.3,27.7 L615.0,25.3  '/></g>
	</g>
	<g id="gnuplot_plot_2" ><title>pages+cached+noexternal+nofonts+nosvg+noimg+nocss</title>
<g fill="none" color="black" stroke="currentColor" stroke-width="1.00" stroke-linecap="butt" stroke-linejoin="miter">
	<g transform="translate(508.4,449.9)" stroke="none" fill="black" font-family="Arial" font-size="12.00"  text-anchor="end">
		<text><tspan font-family="Arial" >pages+cached+noexternal+nofonts+nosvg+noimg+nocss</tspan></text>
	</g>
</g>
<g fill="none" color="black" stroke="currentColor" stroke-width="1.00" stroke-linecap="butt" stroke-linejoin="miter">
	<path stroke='rgb(  0, 158, 115)'  d='M516.7,446.0 L558.9,446.0 M53.9,384.8 L59.6,378.7 L65.2,378.1 L70.9,377.2 L76.6,377.0 L82.2,376.2
		L87.9,376.0 L93.6,375.9 L99.2,375.4 L104.9,375.3 L110.6,375.1 L116.2,374.0 L121.9,372.6 L127.6,372.3
		L133.2,372.2 L138.9,371.9 L144.6,371.7 L150.3,371.3 L155.9,371.1 L161.6,370.1 L167.3,369.9 L172.9,369.9
		L178.6,368.9 L184.3,368.8 L189.9,368.4 L195.6,368.0 L201.3,367.2 L206.9,367.2 L212.6,367.1 L218.3,367.0
		L223.9,366.7 L229.6,366.5 L235.3,366.0 L240.9,366.0 L246.6,365.9 L252.3,365.1 L257.9,364.7 L263.6,364.5
		L269.3,364.3 L274.9,362.7 L280.6,362.7 L286.3,362.3 L291.9,362.1 L297.6,362.0 L303.3,362.0 L308.9,361.2
		L314.6,361.2 L320.3,361.1 L325.9,360.7 L331.6,360.7 L337.3,360.3 L343.0,360.2 L348.6,359.8 L354.3,359.7
		L360.0,359.7 L365.6,359.6 L371.3,359.2 L377.0,358.9 L382.6,358.7 L388.3,358.5 L394.0,358.3 L399.6,358.0
		L405.3,357.9 L411.0,357.9 L416.6,357.9 L422.3,357.0 L428.0,356.6 L433.6,356.5 L439.3,356.4 L445.0,355.9
		L450.6,355.9 L456.3,355.8 L462.0,355.7 L467.6,355.5 L473.3,355.1 L479.0,355.1 L484.6,355.1 L490.3,355.0
		L496.0,354.9 L501.6,354.3 L507.3,354.3 L513.0,354.2 L518.6,354.0 L524.3,353.0 L530.0,352.7 L535.7,352.2
		L541.3,351.9 L547.0,351.1 L552.7,350.9 L558.3,350.3 L564.0,348.5 L569.7,348.3 L575.3,347.6 L581.0,347.5
		L586.7,345.7 L592.3,343.7 L598.0,343.7 L603.7,338.1 L609.3,329.2 L615.0,235.2  '/></g>
	</g>
	<g id="gnuplot_plot_3" ><title>score p10=2017</title>
<g fill="none" color="black" stroke="currentColor" stroke-width="1.00" stroke-linecap="butt" stroke-linejoin="miter">
	<g transform="translate(508.4,467.9)" stroke="none" fill="black" font-family="Arial" font-size="12.00"  text-anchor="end">
		<text><tspan font-family="Arial" >score p10=2017</tspan></text>
	</g>
</g>
<g fill="none" color="black" stroke="currentColor" stroke-width="1.00" stroke-linecap="butt" stroke-linejoin="miter">
	<path stroke='rgb( 86, 180, 233)'  d='M516.7,464.0 L558.9,464.0  '/></g>
	</g>
	<g id="gnuplot_plot_4" ><title>score median=4000</title>
<g fill="none" color="black" stroke="currentColor" stroke-width="1.00" stroke-linecap="butt" stroke-linejoin="miter">
	<g transform="translate(508.4,485.9)" stroke="none" fill="black" font-family="Arial" font-size="12.00"  text-anchor="end">
		<text><tspan font-family="Arial" >score median=4000</tspan></text>
	</g>
</g>
<g fill="none" color="black" stroke="currentColor" stroke-width="1.00" stroke-linecap="butt" stroke-linejoin="miter">
	<path stroke='rgb(230, 159,   0)'  d='M516.7,482.0 L558.9,482.0  '/></g>
	</g>
<g fill="none" color="#FFFFFF" stroke="rgb(230, 159,   0)" stroke-width="2.00" stroke-linecap="butt" stroke-linejoin="miter">
</g>
<g fill="none" color="black" stroke="currentColor" stroke-width="2.00" stroke-linecap="butt" stroke-linejoin="miter">
</g>
<g fill="none" color="black" stroke="black" stroke-width="1.00" stroke-linecap="butt" stroke-linejoin="miter">
</g>
<g fill="none" color="black" stroke="currentColor" stroke-width="1.00" stroke-linecap="butt" stroke-linejoin="miter">
	<path stroke='black'  d='M53.9,18.1 L53.9,392.0 L615.0,392.0 L615.0,18.1 L53.9,18.1 Z  '/></g>
<g fill="none" color="black" stroke="currentColor" stroke-width="1.00" stroke-linecap="butt" stroke-linejoin="miter">
</g>
</g>
</svg>
